sk-include/static/img/file/folder.svg

<?xml version="1.0" encoding="UTF-8"?><svg width="25" height="25" viewBox="0 0 48 48" fill="none" xmlns="http://www.w3.org/2000/svg"><path d="M5 8C5 6.89543 5.89543 6 7 6H19L24 12H41C42.1046 12 43 12.8954 43 14V40C43 41.1046 42.1046 42 41 42H7C5.89543 42 5 41.1046 5 40V8Z" fill="none" stroke="#FFF176" stroke-width="4" stroke-linejoin="round"/><path d="M43 22H5" stroke="#FFF176" stroke-width="4" stroke-linejoin="round"/><path d="M5 16V28" stroke="#FFF176" stroke-width="4" stroke-linecap="round" stroke-linejoin="round"/><path d="M43 16V28" stroke="#FFF176" stroke-width="4" stroke-linecap="round" stroke-linejoin="round"/></svg>

<svg xmlns="http://www.w3.org/2000/svg" fill="none" viewBox="0 0 48 48"><path stroke-linejoin="round" stroke-width="4" stroke="#FFCE49" fill="#FFCE49" d="M5 8a2 2 0 0 1 2-2h12l5 6h17a2 2 0 0 1 2 2v26a2 2 0 0 1-2 2H7a2 2 0 0 1-2-2V8Z" data-follow-fill="#FFCE49" data-follow-stroke="#FFCE49"/><path stroke-linejoin="round" stroke-width="4" stroke="#FFF" d="M43 22H5"/><path stroke-linejoin="round" stroke-linecap="round" stroke-width="4" stroke="#FFCE49" d="M5 16v12M43 16v12" data-follow-stroke="#FFCE49"/></svg>
